_includes/icons/ios-call.svg

<svg fill="#666" height="50" viewBox="0 0 50 50" width="50" xmlns="http://www.w3.org/2000/svg"><path d="m11.839844 2.988281c-.769531-.0625-1.625.160157-2.414063.714844-.695312.484375-2.195312 1.675781-3.597656 3.023438-.699219.671875-1.367187 1.371093-1.882812 2.058593-.519532.6875-.972657 1.316407-.945313 2.230469.027344.820313.109375 3.246094 1.855469 6.964844 1.746094 3.714844 5.132812 8.8125 11.738281 15.421875 6.609375 6.609375 11.707031 9.996094 15.421875 11.742187 3.714844 1.746094 6.144531 1.828125 6.964844 1.855469.910156.027344 1.539062-.425781 2.226562-.945312.6875-.519532 1.386719-1.183594 2.058594-1.882813 1.34375-1.402344 2.535156-2.902344 3.019531-3.597656 1.105469-1.574219.921875-3.433594-.308593-4.296875-.773438-.542969-7.886719-5.277344-8.957032-5.933594-1.085937-.664062-2.335937-.363281-3.453125.226563-.878906.464843-3.257812 1.828125-3.9375 2.21875-.511718-.324219-2.453125-1.617188-6.628906-5.792969-4.179687-4.175781-5.46875-6.117188-5.792969-6.628906.390625-.679688 1.75-3.046875 2.21875-3.941407.585938-1.113281.914063-2.375.214844-3.46875-.292969-.464843-1.625-2.492187-2.96875-4.527343-1.347656-2.035157-2.625-3.964844-2.957031-4.425782v-.003906c-.433594-.597656-1.109375-.949219-1.875-1.011719zm-.183594 2.042969c.273438.035156.4375.144531.4375.144531.160156.222657 1.5625 2.324219 2.90625 4.355469 1.34375 2.035156 2.714844 4.121094 2.953125 4.5.039063.058594.09375.722656-.296875 1.460938v.003906c-.441406.839844-2.5 4.4375-2.5 4.4375l-.285156.503906.292969.5s1.535156 2.589844 6.417968 7.472656c4.886719 4.882813 7.476563 6.421875 7.476563 6.421875l.5.292969.503906-.285156s3.589844-2.054688 4.4375-2.5c.738281-.386719 1.402344-.335938 1.480469-.289063.691406.425782 8.375 5.53125 8.847656 5.863282.015625.011718.433594.644531-.175781 1.511718h-.003906c-.367188.527344-1.570313 2.054688-2.824219 3.359375-.628906.652344-1.273438 1.261719-1.820313 1.671875-.546875.410157-1.035156.539063-.957031.542969-.851562-.027344-2.730469-.046875-6.179687-1.667969-3.449219-1.617187-8.371094-4.855468-14.859375-11.347656-6.484375-6.484375-9.722657-11.40625-11.34375-14.859375-1.617188-3.449219-1.636719-5.328125-1.664063-6.175781.003906.078125.132813-.414063.542969-.960938s1.015625-1.195312 1.667969-1.824218c1.308593-1.253907 2.832031-2.457032 3.359375-2.824219v.003906c.433593-.304687.8125-.34375 1.085937-.3125z"/></svg>

<svg xmlns="http://www.w3.org/2000/svg" viewBox="0 0 50 50" width="50" height="50" fill="#666"><path d="M 11.839844 2.988281 C 11.070313 2.925781 10.214844 3.148438 9.425781 3.703125 C 8.730469 4.1875 7.230469 5.378906 5.828125 6.726563 C 5.128906 7.398438 4.460938 8.097656 3.945313 8.785156 C 3.425781 9.472656 2.972656 10.101563 3 11.015625 C 3.027344 11.835938 3.109375 14.261719 4.855469 17.980469 C 6.601563 21.695313 9.988281 26.792969 16.59375 33.402344 C 23.203125 40.011719 28.300781 43.398438 32.015625 45.144531 C 35.730469 46.890625 38.160156 46.972656 38.980469 47 C 39.890625 47.027344 40.519531 46.574219 41.207031 46.054688 C 41.894531 45.535156 42.59375 44.871094 43.265625 44.171875 C 44.609375 42.769531 45.800781 41.269531 46.285156 40.574219 C 47.390625 39 47.207031 37.140625 45.976563 36.277344 C 45.203125 35.734375 38.089844 31 37.019531 30.34375 C 35.933594 29.679688 34.683594 29.980469 33.566406 30.570313 C 32.6875 31.035156 30.308594 32.398438 29.628906 32.789063 C 29.117188 32.464844 27.175781 31.171875 23 26.996094 C 18.820313 22.820313 17.53125 20.878906 17.207031 20.367188 C 17.597656 19.6875 18.957031 17.320313 19.425781 16.425781 C 20.011719 15.3125 20.339844 14.050781 19.640625 12.957031 C 19.347656 12.492188 18.015625 10.464844 16.671875 8.429688 C 15.324219 6.394531 14.046875 4.464844 13.714844 4.003906 L 13.714844 4 C 13.28125 3.402344 12.605469 3.050781 11.839844 2.988281 Z M 11.65625 5.03125 C 11.929688 5.066406 12.09375 5.175781 12.09375 5.175781 C 12.253906 5.398438 13.65625 7.5 15 9.53125 C 16.34375 11.566406 17.714844 13.652344 17.953125 14.03125 C 17.992188 14.089844 18.046875 14.753906 17.65625 15.492188 L 17.65625 15.496094 C 17.214844 16.335938 15.15625 19.933594 15.15625 19.933594 L 14.871094 20.4375 L 15.164063 20.9375 C 15.164063 20.9375 16.699219 23.527344 21.582031 28.410156 C 26.46875 33.292969 29.058594 34.832031 29.058594 34.832031 L 29.558594 35.125 L 30.0625 34.839844 C 30.0625 34.839844 33.652344 32.785156 34.5 32.339844 C 35.238281 31.953125 35.902344 32.003906 35.980469 32.050781 C 36.671875 32.476563 44.355469 37.582031 44.828125 37.914063 C 44.84375 37.925781 45.261719 38.558594 44.652344 39.425781 L 44.648438 39.425781 C 44.28125 39.953125 43.078125 41.480469 41.824219 42.785156 C 41.195313 43.4375 40.550781 44.046875 40.003906 44.457031 C 39.457031 44.867188 38.96875 44.996094 39.046875 45 C 38.195313 44.972656 36.316406 44.953125 32.867188 43.332031 C 29.417969 41.714844 24.496094 38.476563 18.007813 31.984375 C 11.523438 25.5 8.285156 20.578125 6.664063 17.125 C 5.046875 13.675781 5.027344 11.796875 5 10.949219 C 5.003906 11.027344 5.132813 10.535156 5.542969 9.988281 C 5.953125 9.441406 6.558594 8.792969 7.210938 8.164063 C 8.519531 6.910156 10.042969 5.707031 10.570313 5.339844 L 10.570313 5.34375 C 11.003906 5.039063 11.382813 5 11.65625 5.03125 Z"/></svg>
